public/images/cy7.svg

<svg width="100" height="100" viewBox="0 0 100 100" fill="none" xmlns="http://www.w3.org/2000/svg">
<path d="M56.2722 8.14551C57.1052 8.48539 57.9872 8.48539 58.8692 8.63106C67.3952 9.99059 75.1862 13.0981 82.2422 18.0507C88.1712 22.1779 93.1692 27.2761 97.1382 33.3455C97.7752 34.3166 98.3632 35.2877 99.0002 36.3074C93.6102 45.3871 86.4072 52.6704 76.9992 57.7686C70.4822 61.3131 63.5242 63.4981 56.1252 64.3235C51.6662 64.8091 47.2072 64.8091 42.7482 64.2264C28.7342 62.3813 17.0722 56.1178 7.56616 45.8241C5.36116 43.4449 3.69516 40.7259 1.73516 38.1524C0.608159 36.6958 0.853159 35.8218 1.73516 34.4137C7.51716 25.3339 15.1612 18.3906 24.8142 13.6322C30.5472 10.816 36.6232 9.0195 42.9442 8.29117C42.9932 8.29117 43.0912 8.19406 43.1402 8.14551C47.5502 8.14551 51.9112 8.14551 56.2722 8.14551ZM41.2292 33.6854C41.1802 34.0253 40.9352 34.4137 41.1312 34.8022C41.9642 34.8022 42.7972 34.8022 43.5812 34.8022C44.1692 34.705 44.9042 35.2391 45.2472 34.3652C45.6882 33.297 46.4722 32.6172 47.5012 32.1316C47.8442 32.0345 48.2852 32.0831 48.2852 31.5975C48.3342 30.4322 48.2852 29.2669 48.2852 27.9559C47.4522 28.1987 46.7662 28.3444 46.0802 28.5386C45.7372 28.053 45.4432 27.5189 45.2962 26.8877C46.0802 26.5964 46.8642 26.4022 47.6972 26.305C47.9912 26.2565 48.2852 26.2079 48.2852 25.8195C48.2852 24.4114 48.2852 22.9548 48.2852 21.5467C47.7952 21.5467 47.4032 21.4981 47.0602 21.5467C45.7372 21.7409 44.4632 22.1779 43.1402 22.5663C42.0622 21.3039 42.1602 20.964 43.6792 20.4785C45.1982 20.0415 46.7172 19.7987 48.2362 19.5559C48.2362 18.1478 48.2362 16.8368 48.2362 15.5259C37.7992 15.8172 28.9792 24.2657 28.4892 34.7536C29.7632 34.7536 30.9882 34.7536 32.2622 34.7536C32.3602 33.1513 32.7032 31.6461 33.2912 30.1409C33.8792 30.4322 34.3692 30.675 34.9082 30.9178C34.6142 32.1802 34.1242 33.3941 34.1732 34.7536C35.8392 34.7536 37.4072 34.7536 39.0732 34.7536C39.2202 34.1709 39.3182 33.5883 39.4652 33.0056C40.1022 33.0542 40.6412 33.4912 41.2292 33.6854ZM65.7292 15.4773C72.4422 21.3039 75.8722 28.4415 75.4312 37.1813C75.0392 45.8727 70.9232 52.5733 63.9162 57.6715C64.2592 57.7201 64.5532 57.6715 64.8962 57.5744C69.6982 56.1663 74.1572 54.0785 78.3222 51.3108C81.9972 48.8831 85.3782 46.0669 88.2202 42.668C89.7882 40.7744 91.4052 38.9293 92.7772 36.89C93.1202 36.4045 93.0712 36.1617 92.7772 35.7247C90.9642 33.1513 89.0042 30.675 86.7992 28.3929C81.6542 23.0033 75.5782 19.0218 68.6202 16.3513C67.7382 15.9628 66.9052 15.4773 65.7292 15.4773ZM31.5762 16.1571C31.1842 16.2542 31.0372 16.2542 30.8902 16.3027C20.8452 20.2842 12.8092 26.7906 6.83116 35.7247C6.53716 36.1617 6.58616 36.4045 6.88016 36.7929C13.0542 46.0183 21.3842 52.5732 31.7722 56.5062C32.0662 56.6033 32.3112 56.7975 32.7522 56.5548C26.3822 51.3594 22.8542 44.8045 22.6092 36.6958C22.3642 28.5871 25.4512 21.838 31.5762 16.1571ZM48.3342 56.2149C48.3342 55.4865 48.3342 54.8553 48.3342 54.2241C48.3342 53.5443 48.3342 52.8646 48.3342 52.2819C39.0242 51.1652 33.6832 46.1154 32.1642 36.9871C31.0372 36.9871 29.8122 36.9871 28.5872 36.9871C28.7342 46.3097 36.8192 55.8264 48.3342 56.2149ZM50.4902 15.5744C50.4902 16.8368 50.4902 18.0022 50.4902 19.216C50.4902 19.7501 50.8332 19.7016 51.2252 19.7501C57.3992 20.5756 61.7602 23.8773 64.5042 29.364C65.3372 31.0634 65.6802 32.9085 65.9252 34.7536C67.1992 34.7536 68.4242 34.7536 69.6492 34.7536C68.9142 23.586 59.7022 16.1085 50.4902 15.5744ZM50.4902 56.1178C60.8292 55.7779 69.5022 46.5039 69.5022 37.0357C68.2772 37.0357 67.0522 37.0357 65.8762 37.0357C65.6802 38.8808 65.3862 40.6287 64.6022 42.2311C61.8582 47.8634 57.4972 51.2623 51.1762 52.0877C50.6862 52.1363 50.4902 52.2819 50.4902 52.7675C50.4902 53.8357 50.4902 54.9524 50.4902 56.1178ZM34.2222 36.9871C34.4672 44.9016 42.5522 50.8253 48.2362 50.1941C48.2362 48.6403 48.2362 47.1351 48.2362 45.6299C43.0422 44.9016 40.0532 41.9397 39.0242 36.9871C37.3582 36.9871 35.7902 36.9871 34.2222 36.9871ZM59.1142 36.9386C58.8202 37.9097 58.7222 38.8808 58.2812 39.7548C56.8112 42.7652 54.4592 44.6588 51.1762 45.3871C50.8332 45.4842 50.4412 45.4357 50.4902 45.9698C50.4902 47.3779 50.4902 48.786 50.4902 50.1941C56.8602 50.097 63.8672 43.9305 63.9162 36.9871C63.7202 36.9871 63.5242 36.9386 63.3772 36.9386C61.9562 36.9386 60.5352 36.9386 59.1142 36.9386ZM50.5392 26.2565C54.5082 26.9363 58.1832 29.6553 59.1142 34.8022C60.7312 34.8022 62.3482 34.8022 63.9652 34.8022C63.8182 27.7131 56.7622 21.6923 50.5392 21.5952C50.5392 23.1004 50.5392 24.6542 50.5392 26.2565ZM41.0822 36.9871C41.0332 40.2403 44.7082 43.6391 48.2852 43.7363C48.2852 42.4738 48.2852 41.26 48.2852 39.949C46.6192 39.6091 45.5902 38.4923 45.0512 36.9871C43.6792 36.9871 42.4052 36.9871 41.0822 36.9871ZM50.4902 43.6877C54.0182 43.0565 56.8112 40.2403 57.1052 36.9871C55.8802 36.9871 54.6552 36.9871 53.4302 36.9871C53.0872 36.9871 52.9892 37.2299 52.9402 37.4727C52.5972 38.4438 51.9112 39.075 51.0292 39.6091C50.7842 39.7548 50.4902 39.8033 50.4902 40.1917C50.4902 41.3085 50.4902 42.4738 50.4902 43.6877ZM50.4902 28.1501C50.4902 29.364 50.4902 30.5293 50.4902 31.6946C50.4902 31.9374 50.5392 32.1316 50.7842 32.2287C51.9602 32.7143 52.6462 33.6854 53.0872 34.7536C54.4592 34.7536 55.7822 34.7536 57.1542 34.7536C56.6642 31.4033 53.9202 28.6357 50.4902 28.1501Z" fill="#020202"/>
<path d="M29.9099 91.8542C29.9099 90.7375 29.9099 89.6693 29.9099 88.5039C30.5959 88.5039 31.2819 88.5039 32.0659 88.5039C32.4089 84.2311 32.8009 80.0068 33.1439 75.6854C32.3599 75.6854 31.6739 75.6854 30.8899 75.6854C30.8899 74.423 30.8899 73.3063 30.8899 72.0924C33.5359 72.0924 36.1329 72.0924 38.8279 72.0924C40.1509 75.9282 41.4739 79.8126 42.7969 83.7456C44.1199 79.8126 45.4429 75.9768 46.7659 72.0438C49.3629 72.0438 52.0089 72.0438 54.7529 72.0438C54.7529 73.2091 54.7529 74.3745 54.7529 75.5883C54.0669 75.5883 53.3319 75.5883 52.4989 75.5883C52.8419 79.9097 53.2339 84.134 53.5769 88.3097C54.3119 88.5525 55.0469 88.2612 55.8309 88.5525C55.8309 89.6207 55.8309 90.7375 55.8309 91.8057C52.7929 91.8057 49.7059 91.8057 46.6679 91.8057C46.6679 90.6889 46.6679 89.5722 46.6679 88.5039C47.3539 88.3097 47.9909 88.5525 48.6279 88.3097C48.5299 85.2993 48.0889 82.2889 48.1869 79.1814C47.3539 82.1433 46.1779 84.7652 45.2959 87.5328C45.0509 88.2612 44.6589 88.4554 43.9729 88.4068C43.1399 88.3583 42.2579 88.3583 41.4249 88.4068C40.8859 88.4554 40.5919 88.2612 40.4449 87.7271C40.1509 86.8531 39.8569 85.9791 39.5139 85.1051C38.8769 83.3086 38.2399 81.512 37.5049 79.5698C37.5539 82.6288 37.1129 85.445 37.0149 88.3583C37.6519 88.5525 38.3379 88.3097 39.0729 88.6011C39.0729 89.6693 39.0729 90.7375 39.0729 91.8542C36.0349 91.8542 32.9969 91.8542 29.9099 91.8542Z" fill="#020202"/>
<path d="M57.2519 91.8542C57.0559 90.786 57.2519 89.6693 57.1539 88.6496C57.3009 88.5525 57.3499 88.5039 57.3989 88.5039C58.5749 88.6982 59.0159 88.1155 59.3589 87.0473C60.9759 82.0461 62.6909 77.0935 64.4059 72.0438C66.1699 72.0438 67.9829 72.0438 69.7469 72.0438C70.2369 72.0438 70.2369 72.3352 70.3839 72.6265C71.8049 76.7537 73.1769 80.8808 74.5979 85.008C74.8429 85.7849 75.1859 86.5617 75.3819 87.3872C75.5779 88.2126 75.9699 88.6011 76.8519 88.4554C76.9989 88.4068 77.1459 88.4554 77.4399 88.4554C77.4399 89.6207 77.4399 90.7375 77.4399 91.8542C74.6469 91.8542 71.8539 91.8542 69.0609 91.8542C69.0609 90.7375 69.0609 89.6207 69.0609 88.5525C69.6489 88.4068 70.1879 88.6011 70.7269 88.3583C70.5309 87.63 70.2859 86.9016 70.0899 86.1733C69.9919 85.882 69.7959 85.7849 69.5019 85.7849C68.0319 85.7849 66.5619 85.7849 65.1409 85.7849C64.8469 85.7849 64.6509 85.9305 64.6019 86.2219C64.4059 86.9502 64.2099 87.6785 64.0139 88.4554C64.6509 88.5039 65.1409 88.5039 65.7289 88.5525C65.7289 89.7178 65.7289 90.786 65.7289 91.9028C62.8379 91.8542 60.0449 91.8542 57.2519 91.8542ZM68.7179 81.949C68.2769 80.0068 67.5909 78.2103 67.2969 76.2195C66.7579 78.2103 66.2189 80.0554 65.7289 81.949C66.7579 81.949 67.6889 81.949 68.7179 81.949Z" fill="#020202"/>
<path d="M79.1059 91.8542C79.1059 90.786 79.1059 89.6693 79.1059 88.5039C79.8409 88.5039 80.5269 88.5039 81.3109 88.5039C81.3109 84.2311 81.3109 80.0068 81.3109 75.734C80.6249 75.734 79.9389 75.734 79.1549 75.734C79.1549 74.4716 79.1549 73.3063 79.1549 72.0438C80.0859 72.0438 81.0169 72.0438 81.9479 72.0438C84.6919 72.0438 87.4849 72.0924 90.2289 72.0924C94.5899 72.0924 96.8439 75.734 96.4029 79.6184C96.0109 82.9201 94.0999 85.1537 91.4049 85.445C90.0329 85.5906 88.6119 85.5421 87.2399 85.5906C86.9949 85.5906 86.7499 85.6392 86.4069 85.6392C86.4069 86.5617 86.4069 87.4357 86.4069 88.3583C87.1419 88.6011 87.8279 88.3583 88.6609 88.5525C88.6609 89.6693 88.6609 90.7375 88.6609 91.8542C85.4759 91.8542 82.2909 91.8542 79.1059 91.8542ZM86.4069 81.7063C88.0239 81.5606 89.8369 82.2889 91.0129 80.5895C91.6989 79.5698 91.6499 77.6762 90.8659 76.8508C89.5919 75.4912 87.9259 76.171 86.4069 76.0253C86.4069 77.9675 86.4069 79.7641 86.4069 81.7063Z" fill="#020202"/>
<path d="M6.53688 91.8541C6.58588 91.2715 6.58588 90.6403 6.63488 89.9119C7.46788 89.9119 8.25188 89.9119 9.08488 89.9119C9.08488 84.7166 9.08488 79.6668 9.08488 74.52C8.34988 74.2773 7.51688 74.52 6.68388 74.3744C6.48788 73.7431 6.63488 73.0634 6.58588 72.2865C8.34988 72.2865 10.0159 72.2865 11.6819 72.2865C11.9759 72.2865 12.0739 72.5293 12.2209 72.7235C15.2589 77.142 18.3459 81.5605 21.4329 85.979C21.7269 86.416 21.9229 86.853 22.3149 87.4356C22.3149 83.0171 22.3149 78.7929 22.3149 74.4715C21.5799 74.4715 20.7959 74.4715 20.0119 74.4715C19.7669 73.7431 19.8649 73.0148 19.9139 72.2865C22.5109 72.2865 25.0589 72.2865 27.6559 72.2865C27.8029 72.9663 27.7049 73.646 27.7049 74.3744C26.9209 74.3744 26.1369 74.3744 25.2549 74.3744C25.2549 80.2495 25.2549 86.0275 25.2549 91.8056C24.2259 91.8056 23.1969 91.8056 22.1189 91.8056C22.1679 91.6114 22.0209 91.5142 21.9719 91.3686C19.7669 88.2125 17.5619 85.0079 15.3569 81.8518C14.1809 80.1524 12.9559 78.5015 11.8779 76.6564C11.8779 81.0749 11.8779 85.4449 11.8779 89.8634C12.7599 89.8634 13.5929 89.8634 14.5239 89.8634C14.5239 90.5917 14.5239 91.1744 14.5239 91.8056C11.8289 91.8541 9.18288 91.8541 6.53688 91.8541Z" fill="#020202"/>
<path d="M65.7289 15.4773C66.9049 15.4773 67.7379 15.9628 68.5709 16.3027C75.5289 18.9732 81.6539 22.9548 86.7499 28.3443C88.9059 30.6264 90.8659 33.1027 92.7279 35.6761C93.0219 36.1131 93.0709 36.3559 92.7279 36.8415C91.3559 38.8808 89.7389 40.7258 88.1709 42.6195C85.3289 46.0183 81.9479 48.8345 78.2729 51.2623C74.1079 54.0299 69.6489 56.1178 64.8469 57.5258C64.5039 57.623 64.2099 57.6715 63.8669 57.623C70.8249 52.5247 74.9409 45.8727 75.3819 37.1328C75.8229 28.3929 72.4419 21.3039 65.7289 15.4773Z" fill="#F3F3F3"/>
<path d="M31.5759 16.1571C25.4509 21.838 22.3639 28.5872 22.6089 36.6958C22.8539 44.8045 26.3819 51.3594 32.7519 56.5548C32.3599 56.7976 32.0659 56.6033 31.7719 56.5062C21.3349 52.5733 13.0539 46.0184 6.87989 36.8415C6.58589 36.4531 6.53689 36.1617 6.83089 35.7733C12.8579 26.8392 20.8449 20.3814 30.8899 16.3513C31.0369 16.2542 31.1839 16.2542 31.5759 16.1571Z" fill="#F3F3F3"/>
<path d="M47.5009 32.1317C46.5209 32.6172 45.6879 33.297 45.2469 34.3652C44.9039 35.1906 44.1689 34.7051 43.5809 34.8022C42.7969 34.4137 42.0129 34.0739 41.1799 33.6854C40.5919 33.4912 40.1019 33.0542 39.4649 33.0056C38.0439 32.0831 36.4759 31.549 34.9569 30.9178C34.4179 30.675 33.9279 30.4322 33.3399 30.1409C32.7519 31.6461 32.4089 33.1513 32.3109 34.7536C31.0369 34.7536 29.7629 34.7536 28.5379 34.7536C29.0279 24.2658 37.7989 15.8172 48.2849 15.5259C48.2849 16.8369 48.2849 18.0993 48.2849 19.5559C46.8149 19.7987 45.2469 20.0415 43.7279 20.4785C42.2089 20.9155 42.1109 21.3039 43.1889 22.5663C43.8259 24.0715 44.4629 25.5282 45.3449 26.9363C45.4919 27.5675 45.7859 28.1016 46.1289 28.5872C46.1289 28.9756 46.3739 29.2184 46.5209 29.5583C46.8149 30.3837 47.4029 31.1606 47.5009 32.1317Z" fill="#F3F3F3"/>
<path d="M48.3339 56.2149C36.8679 55.7779 28.7339 46.3097 28.5869 36.9872C29.8119 36.9872 31.0369 36.9872 32.1639 36.9872C33.6829 46.067 39.0239 51.1167 48.3339 52.282C48.3339 52.8646 48.3339 53.5444 48.3339 54.2242C48.3339 54.9039 48.3339 55.5352 48.3339 56.2149Z" fill="#F3F3F3"/>
<path d="M50.4899 15.5745C59.7019 16.1086 68.9139 23.586 69.5999 34.7537C68.3749 34.7537 67.1989 34.7537 65.8759 34.7537C65.6309 32.9571 65.3369 31.0635 64.4549 29.3641C61.7109 23.8774 57.3499 20.5756 51.1759 19.7502C50.8329 19.7016 50.4409 19.7502 50.4409 19.2161C50.4899 18.0022 50.4899 16.8369 50.4899 15.5745Z" fill="#F3F3F3"/>
<path d="M50.4899 56.1177C50.4899 54.9524 50.4899 53.8842 50.4899 52.7674C50.4899 52.2819 50.6859 52.1362 51.1759 52.0877C57.4969 51.3108 61.8579 47.8634 64.6019 42.231C65.3859 40.6287 65.6799 38.8807 65.8759 37.0356C67.1009 37.0356 68.3259 37.0356 69.5019 37.0356C69.5019 46.4553 60.8289 55.7778 50.4899 56.1177Z" fill="#F3F3F3"/>
<path d="M34.2219 36.9872C35.8389 36.9872 37.3579 36.9872 39.0239 36.9872C40.0529 41.9398 43.0419 44.9016 48.2849 45.63C48.2849 47.1352 48.2849 48.6404 48.2849 50.1941C42.5519 50.8253 34.4669 44.9016 34.2219 36.9872Z" fill="#99C3D4"/>
<path d="M59.1139 36.9386C60.5349 36.9386 61.9559 36.9386 63.3769 36.9386C63.5729 36.9386 63.7689 36.9872 63.9159 36.9872C63.8669 43.9305 56.8599 50.1455 50.4899 50.2426C50.4899 48.8346 50.4899 47.4265 50.4899 46.0184C50.4899 45.4843 50.8329 45.5328 51.1759 45.4357C54.4589 44.6588 56.8109 42.7652 58.2809 39.8033C58.7219 38.9294 58.8199 37.9583 59.1139 36.9386Z" fill="#99C3D4"/>
<path d="M50.5389 26.2565C50.5389 24.6542 50.5389 23.149 50.5389 21.5952C56.7129 21.6438 63.7689 27.7131 63.9649 34.8022C62.3479 34.8022 60.7309 34.8022 59.1139 34.8022C58.1339 29.6068 54.5079 26.9363 50.5389 26.2565Z" fill="#99C3D4"/>
<path d="M41.0819 36.9872C42.4049 36.9872 43.6789 36.9872 45.0019 36.9872C45.5899 38.4924 46.5699 39.6091 48.2359 39.949C48.2359 41.26 48.2359 42.4739 48.2359 43.7363C44.7079 43.6392 41.0329 40.2404 41.0819 36.9872Z" fill="#99C3D4"/>
<path d="M50.4899 43.6877C50.4899 42.4739 50.4899 41.3085 50.4899 40.1432C50.4899 39.7548 50.7839 39.7062 51.0289 39.5606C51.8619 39.0265 52.5969 38.3952 52.9399 37.4241C53.0379 37.1814 53.0869 36.9386 53.4299 36.9386C54.6549 36.9386 55.8799 36.9386 57.1049 36.9386C56.8109 40.2403 54.0179 43.0565 50.4899 43.6877Z" fill="#99C3D4"/>
<path d="M50.4899 28.1501C53.9199 28.6357 56.6639 31.4033 57.1049 34.7536C55.7819 34.7536 54.4589 34.7536 53.0379 34.7536C52.5969 33.6369 51.9109 32.7143 50.7349 32.2288C50.4899 32.1316 50.4409 31.9374 50.4409 31.6947C50.4899 30.5293 50.4899 29.4126 50.4899 28.1501Z" fill="#99C3D4"/>
<path d="M45.2959 26.8877C44.4139 25.5282 43.7769 24.023 43.1399 22.5178C44.4139 22.1294 45.6879 21.6924 47.0599 21.4981C47.4519 21.4496 47.7949 21.4981 48.2849 21.4981C48.2849 22.9548 48.2849 24.3629 48.2849 25.771C48.2849 26.1594 47.9909 26.208 47.6969 26.2565C46.9129 26.4022 46.0799 26.5964 45.2959 26.8877Z" fill="#99C3D4"/>
<path d="M34.9569 30.9177C36.4759 31.5489 38.0929 32.083 39.4649 33.0056C39.3179 33.5882 39.2199 34.1709 39.0729 34.7536C37.4069 34.7536 35.8389 34.7536 34.1729 34.7536C34.1729 33.394 34.6139 32.1802 34.9569 30.9177Z" fill="#99C3D4"/>
<path d="M47.5009 32.1317C47.4029 31.1606 46.8149 30.3837 46.4719 29.5097C46.3249 29.1698 46.0799 28.927 46.0799 28.5386C46.7659 28.3444 47.4519 28.1987 48.2849 27.9559C48.2849 29.2669 48.2849 30.4322 48.2849 31.5976C48.2849 32.0831 47.8439 32.0345 47.5009 32.1317Z" fill="#99C3D4"/>
<path d="M41.2289 33.6854C42.0129 34.0739 42.7969 34.4137 43.6299 34.8022C42.7969 34.8022 41.9639 34.8022 41.1799 34.8022C40.9349 34.4137 41.1799 34.0253 41.2289 33.6854Z" fill="#99C3D4"/>
</svg>

<svg xmlns="http://www.w3.org/2000/svg" width="100" height="100" fill="none"><path fill="#020202" d="M56.272 8.146c.833.34 1.715.34 2.597.485 8.526 1.36 16.317 4.467 23.373 9.42 5.93 4.127 10.927 9.225 14.896 15.295.637.97 1.225 1.942 1.862 2.961-5.39 9.08-12.593 16.363-22 21.462q-9.777 5.317-20.875 6.554c-4.459.486-8.918.486-13.377-.097-14.014-1.845-25.676-8.108-35.182-18.402-2.205-2.38-3.87-5.098-5.83-7.672-1.128-1.456-.883-2.33 0-3.738 5.781-9.08 13.425-16.023 23.078-20.782a55.3 55.3 0 0 1 18.13-5.34c.05 0 .147-.098.196-.146zM41.23 33.686c-.049.34-.294.728-.098 1.116h2.45c.588-.097 1.323.437 1.666-.437.441-1.068 1.225-1.748 2.254-2.233.343-.097.784-.049.784-.534.05-1.166 0-2.331 0-3.642-.833.243-1.519.388-2.205.583-.343-.486-.637-1.02-.784-1.651a10.2 10.2 0 0 1 2.401-.583c.294-.049.588-.097.588-.485v-4.273c-.49 0-.882-.049-1.225 0-1.323.194-2.597.63-3.92 1.02-1.078-1.263-.98-1.603.54-2.088 1.518-.437 3.037-.68 4.556-.923v-4.03c-10.437.291-19.257 8.74-19.747 19.228h3.773a15 15 0 0 1 1.03-4.613c.587.291 1.077.534 1.616.777-.294 1.262-.784 2.476-.735 3.836h4.9c.147-.583.245-1.166.392-1.748.637.048 1.176.485 1.764.68m24.5-18.209c6.713 5.827 10.143 12.965 9.702 21.704-.392 8.692-4.508 15.392-11.515 20.49.343.05.637 0 .98-.097a49 49 0 0 0 13.426-6.263c3.675-2.428 7.056-5.244 9.898-8.643 1.568-1.894 3.185-3.739 4.557-5.778.343-.486.294-.728 0-1.165-1.813-2.574-3.773-5.05-5.978-7.332-5.145-5.39-11.22-9.371-18.179-12.042-.882-.388-1.715-.874-2.89-.874m-34.153.68c-.392.097-.539.097-.686.146C20.845 20.284 12.81 26.79 6.831 35.725c-.294.437-.245.68.05 1.068 6.173 9.225 14.503 15.78 24.891 19.713.294.097.54.291.98.049-6.37-5.196-9.898-11.75-10.143-19.86-.245-8.108 2.842-14.857 8.967-20.538m16.758 40.058v-3.933c-9.31-1.117-14.65-6.167-16.17-15.295h-3.577c.147 9.323 8.232 18.84 19.747 19.228m2.156-40.64v3.641c0 .534.343.486.735.534 6.174.826 10.535 4.127 13.28 9.614.832 1.7 1.175 3.544 1.42 5.39h3.724c-.735-11.168-9.947-18.645-19.159-19.18m0 40.543c10.34-.34 19.012-9.614 19.012-19.082h-3.626c-.196 1.845-.49 3.593-1.274 5.195-2.744 5.632-7.105 9.031-13.426 9.857-.49.048-.686.194-.686.68zm-16.268-19.13c.245 7.914 8.33 13.837 14.014 13.206V45.63c-5.194-.728-8.183-3.69-9.212-8.643zm24.892-.05c-.294.972-.392 1.943-.833 2.817-1.47 3.01-3.822 4.904-7.105 5.632-.343.097-.735.049-.686.583v4.224c6.37-.097 13.377-6.264 13.426-13.207-.196 0-.392-.048-.539-.048zM50.54 26.257c3.97.68 7.644 3.4 8.575 8.546h4.851c-.147-7.089-7.203-13.11-13.426-13.207zm-9.457 10.731c-.049 3.253 3.626 6.652 7.203 6.75v-3.788c-1.666-.34-2.695-1.457-3.234-2.962zm9.408 6.7c3.528-.63 6.321-3.447 6.615-6.7H53.43c-.343 0-.44.243-.49.486-.343.97-1.029 1.602-1.91 2.136-.246.146-.54.194-.54.583zm0-15.537v3.545c0 .242.05.437.294.534 1.176.485 1.862 1.456 2.303 2.525h4.067c-.49-3.35-3.234-6.118-6.664-6.604M29.91 91.854v-3.35h2.156c.343-4.273.735-8.497 1.078-12.819H30.89v-3.593h7.938q1.984 5.754 3.969 11.654c1.323-3.933 2.646-7.77 3.969-11.702h7.987v3.544h-2.254c.343 4.322.735 8.546 1.078 12.722.735.242 1.47-.049 2.254.242v3.254h-9.163v-3.302c.686-.194 1.323.048 1.96-.194-.098-3.01-.54-6.021-.441-9.129-.833 2.962-2.01 5.584-2.891 8.352-.245.728-.637.922-1.323.874a22 22 0 0 0-2.548 0c-.54.048-.833-.146-.98-.68-.294-.874-.588-1.748-.931-2.622-.637-1.796-1.274-3.593-2.01-5.535.05 3.059-.391 5.875-.49 8.788.638.194 1.324-.048 2.059.243v3.253zM57.252 91.854c-.196-1.068 0-2.185-.098-3.204.147-.098.196-.146.245-.146 1.176.194 1.617-.389 1.96-1.457 1.617-5 3.332-9.953 5.047-15.003h5.34c.49 0 .49.291.638.582 1.42 4.128 2.793 8.255 4.214 12.382.245.777.588 1.554.784 2.38s.588 1.213 1.47 1.067c.147-.048.294 0 .588 0v3.4h-8.38v-3.303c.589-.145 1.128.05 1.667-.194-.196-.728-.441-1.456-.637-2.185-.098-.291-.294-.388-.588-.388H65.14c-.294 0-.49.145-.54.437-.195.728-.391 1.457-.587 2.233.637.049 1.127.049 1.715.097v3.35c-2.891-.048-5.684-.048-8.477-.048m11.466-9.905c-.441-1.942-1.127-3.739-1.421-5.73-.54 1.991-1.078 3.836-1.568 5.73zM79.106 91.854v-3.35h2.205v-12.77h-2.156v-3.69h2.793c2.744 0 5.537.048 8.28.048 4.362 0 6.616 3.642 6.175 7.526-.392 3.302-2.303 5.536-4.998 5.827-1.372.146-2.793.097-4.165.146-.245 0-.49.048-.833.048v2.72c.735.242 1.42 0 2.254.194v3.301zm7.3-10.148c1.618-.145 3.43.583 4.607-1.117.686-1.02.637-2.913-.147-3.738-1.274-1.36-2.94-.68-4.46-.826zM6.537 91.854c.049-.582.049-1.214.098-1.942h2.45V74.52c-.735-.243-1.568 0-2.401-.146-.196-.63-.05-1.31-.098-2.087h5.096c.294 0 .392.242.539.436a2159 2159 0 0 0 9.212 13.256c.294.437.49.874.882 1.457V74.47h-2.303c-.245-.728-.147-1.456-.098-2.184h7.742c.147.68.049 1.359.049 2.087h-2.45v17.432h-3.136c.049-.195-.098-.292-.147-.437-2.205-3.156-4.41-6.361-6.615-9.517-1.176-1.7-2.401-3.35-3.48-5.196v13.207h2.647v1.943c-2.695.048-5.341.048-7.987.048"/><path fill="#F3F3F3" d="M65.729 15.477c1.176 0 2.009.486 2.842.826 6.958 2.67 13.083 6.652 18.179 12.041 2.156 2.282 4.116 4.759 5.978 7.332.294.437.343.68 0 1.166-1.372 2.039-2.99 3.884-4.557 5.778-2.842 3.398-6.223 6.215-9.898 8.642a49 49 0 0 1-13.426 6.264c-.343.097-.637.145-.98.097 6.958-5.098 11.074-11.75 11.515-20.49.44-8.74-2.94-15.83-9.653-21.656M31.576 16.157c-6.125 5.681-9.212 12.43-8.967 20.539.245 8.108 3.773 14.663 10.143 19.859-.392.243-.686.048-.98-.049C21.335 52.573 13.054 46.018 6.88 36.842c-.294-.389-.343-.68-.05-1.069 6.028-8.934 14.015-15.392 24.06-19.422.147-.097.294-.097.686-.194"/><path fill="#F3F3F3" d="M47.5 32.132c-.98.485-1.812 1.165-2.253 2.233-.343.826-1.078.34-1.666.437-.784-.388-1.568-.728-2.401-1.117-.588-.194-1.078-.63-1.715-.68-1.421-.922-2.99-1.456-4.508-2.087-.54-.243-1.03-.486-1.617-.777a15 15 0 0 0-1.03 4.613h-3.772c.49-10.488 9.26-18.937 19.747-19.228v4.03c-1.47.243-3.038.485-4.557.922s-1.617.826-.54 2.088c.638 1.506 1.275 2.962 2.157 4.37.147.631.44 1.166.784 1.651 0 .389.245.631.392.971.294.826.882 1.603.98 2.574M48.334 56.215c-11.466-.437-19.6-9.905-19.747-19.228h3.577c1.519 9.08 6.86 14.13 16.17 15.295v3.932M50.49 15.575c9.212.534 18.424 8.011 19.11 19.179h-3.724c-.245-1.797-.54-3.69-1.421-5.39-2.744-5.487-7.105-8.788-13.28-9.614-.342-.048-.734 0-.734-.534.049-1.214.049-2.38.049-3.642M50.49 56.118v-3.35c0-.486.196-.632.686-.68 6.32-.777 10.682-4.225 13.426-9.857.784-1.602 1.078-3.35 1.274-5.195h3.626c0 9.42-8.673 18.742-19.012 19.082"/><path fill="#99C3D4" d="M34.222 36.987h4.802c1.029 4.953 4.018 7.915 9.26 8.643v4.564c-5.732.631-13.817-5.292-14.062-13.207M59.114 36.939h4.263c.196 0 .392.048.539.048-.05 6.944-7.056 13.158-13.426 13.256v-4.225c0-.534.343-.485.686-.582 3.283-.777 5.635-2.67 7.105-5.633.44-.874.539-1.845.833-2.864M50.539 26.257v-4.662c6.174.049 13.23 6.118 13.426 13.207h-4.851c-.98-5.195-4.606-7.866-8.575-8.545"/><path fill="#99C3D4" d="M41.082 36.987h3.92c.588 1.505 1.568 2.622 3.234 2.962v3.787c-3.528-.097-7.203-3.496-7.154-6.749M50.49 43.688v-3.545c0-.388.294-.437.539-.582.833-.535 1.568-1.166 1.91-2.137.099-.243.148-.485.49-.485h3.676c-.294 3.301-3.087 6.118-6.615 6.749M50.49 28.15c3.43.486 6.174 3.253 6.615 6.604h-4.067c-.441-1.117-1.127-2.04-2.303-2.525-.245-.097-.294-.292-.294-.534.049-1.166.049-2.282.049-3.545M45.296 26.888c-.882-1.36-1.52-2.865-2.156-4.37 1.274-.389 2.548-.826 3.92-1.02.392-.048.735 0 1.225 0v4.273c0 .388-.294.437-.588.485-.784.146-1.617.34-2.401.632M34.957 30.918c1.519.63 3.136 1.165 4.508 2.088-.147.582-.245 1.165-.392 1.748h-4.9c0-1.36.44-2.574.784-3.836M47.5 32.132c-.097-.971-.685-1.748-1.028-2.622-.147-.34-.392-.583-.392-.971.686-.195 1.372-.34 2.205-.583v3.642c0 .485-.441.437-.784.534M41.229 33.685c.784.389 1.568.729 2.4 1.117h-2.45c-.244-.388 0-.777.05-1.117"/></svg>
